Ministry.BlogPage/wwwroot/dist/img/about_agency/innovation.svg

<svg width="57" height="70" viewBox="0 0 57 70" fill="none" xmlns="http://www.w3.org/2000/svg">
<path d="M41.4916 24.7206H38.3861C38.1965 24.1187 37.9553 23.536 37.6643 22.977L39.86 20.7812C40.1344 20.5068 40.2854 20.1419 40.2854 19.7537C40.2854 19.3654 40.1344 19.0005 39.86 18.7261L37.2758 16.1419C36.7093 15.5757 35.7875 15.5755 35.2208 16.142L33.025 18.3379C32.466 18.0468 31.8831 17.8055 31.2814 17.616V14.5104C31.2813 13.7093 30.6294 13.0573 29.8281 13.0573H26.1735C25.3723 13.0573 24.7204 13.7091 24.7204 14.5104V17.616C24.1186 17.8056 23.5359 18.0468 22.9767 18.3379L20.7808 16.1419C20.2142 15.5756 19.2924 15.5757 18.7259 16.142L16.1419 18.726C15.8674 19.0004 15.7162 19.3653 15.7162 19.7536C15.7162 20.1417 15.8674 20.5066 16.1418 20.781L18.3376 22.9769C18.0465 23.5359 17.8052 24.1187 17.6157 24.7204H14.5102C13.709 24.7204 13.0571 25.3723 13.0571 26.1736V29.8282C13.0571 30.6294 13.709 31.2813 14.5102 31.2813H17.6157C17.8054 31.883 18.0465 32.4659 18.3376 33.0249L16.1418 35.2207C15.5752 35.7872 15.5752 36.7091 16.1418 37.2757L18.7259 39.8598C19.2924 40.4265 20.2145 40.4264 20.7809 39.8598L22.9767 37.664C23.5358 37.9551 24.1187 38.1964 24.7204 38.3859V41.4914C24.7204 42.2926 25.3723 42.9445 26.1735 42.9445H29.8281C30.6293 42.9445 31.2813 42.2926 31.2813 41.4914V38.3859C31.8828 38.1964 32.4658 37.9551 33.0249 37.664L35.2207 39.8598C35.7874 40.4265 36.7093 40.4264 37.2758 39.8598L39.8598 37.2757C40.1342 37.0013 40.2853 36.6364 40.2853 36.2483C40.2853 35.8601 40.1342 35.4952 39.8598 35.2207L37.664 33.0249C37.9551 32.4658 38.1964 31.883 38.3859 31.2813H41.4914C42.2926 31.2813 42.9446 30.6294 42.9446 29.8282V26.1736C42.9447 25.3724 42.2927 24.7206 41.4916 24.7206ZM40.8941 29.2305H37.6048C37.1285 29.2305 36.7149 29.5585 36.6063 30.0224C36.3877 30.9568 36.0208 31.8432 35.5156 32.6565C35.2642 33.0612 35.3247 33.5857 35.6615 33.9227L37.9872 36.2484L36.2484 37.9872L33.9227 35.6615C33.5858 35.3246 33.0614 35.2639 32.6564 35.5154C31.8429 36.0206 30.9566 36.3876 30.0224 36.6063C29.5585 36.7147 29.2305 37.1283 29.2305 37.6048V40.8942H26.7716V37.6048C26.7716 37.1285 26.4436 36.7149 25.9798 36.6063C25.0456 36.3879 24.1592 36.0209 23.3456 35.5154C22.9411 35.2644 22.4165 35.3246 22.0795 35.6615L19.7537 37.9872L18.015 36.2484L20.3407 33.9227C20.6775 33.5858 20.738 33.0614 20.4867 32.6565C19.9815 31.8431 19.6146 30.9567 19.3959 30.0224C19.2875 29.5585 18.8738 29.2305 18.3975 29.2305H15.1082V26.7716H18.3975C18.8738 26.7716 19.2874 26.4436 19.3959 25.9797C19.6146 25.0454 19.9815 24.1591 20.4867 23.3456C20.738 22.9409 20.6775 22.4165 20.3407 22.0794L18.015 19.7537L19.7537 18.0149L22.0795 20.3407C22.4161 20.6775 22.9408 20.7381 23.3456 20.4867C24.1589 19.9815 25.0453 19.6145 25.9798 19.3959C26.4436 19.2875 26.7716 18.8739 26.7716 18.3975V15.108H29.2305V18.3975C29.2305 18.8738 29.5585 19.2874 30.0224 19.3959C30.9567 19.6145 31.8429 19.9815 32.6565 20.4867C33.061 20.7378 33.5857 20.6773 33.9227 20.3407L36.2484 18.0149L37.9872 19.7537L35.6615 22.0794C35.3246 22.4163 35.2642 22.9408 35.5156 23.3456C36.0206 24.1588 36.3876 25.0451 36.6063 25.9797C36.7149 26.4436 37.1283 26.7716 37.6048 26.7716H40.8941V29.2305Z" fill="white"/>
<path d="M28.0012 22.5076C24.972 22.5076 22.5078 24.9719 22.5078 28.0009C22.5078 31.0299 24.9722 33.4943 28.0012 33.4943C31.0302 33.4943 33.4945 31.0299 33.4945 28.0009C33.4945 24.9719 31.0303 22.5076 28.0012 22.5076ZM28.0012 31.4435C26.103 31.4435 24.5586 29.8991 24.5586 28.0009C24.5586 26.1027 26.103 24.5583 28.0012 24.5583C29.8994 24.5583 31.4437 26.1027 31.4437 28.0009C31.4437 29.8991 29.8994 31.4435 28.0012 31.4435Z" fill="white"/>
<path d="M4.42722 26.9756H1.02539C0.459101 26.9756 0 27.4347 0 28.001C0 28.5673 0.459101 29.0264 1.02539 29.0264H4.42722C4.99351 29.0264 5.45261 28.5673 5.45261 28.001C5.45261 27.4347 4.99351 26.9756 4.42722 26.9756Z" fill="white"/>
<path d="M54.977 26.9756H51.5752C51.0088 26.9756 50.5498 27.4347 50.5498 28.001C50.5498 28.5673 51.0088 29.0264 51.5752 29.0264H54.977C55.5434 29.0264 56.0024 28.5673 56.0024 28.001C56.0024 27.4347 55.5433 26.9756 54.977 26.9756Z" fill="white"/>
<path d="M12.0563 43.9454C11.656 43.5449 11.0067 43.5449 10.6062 43.9454L8.20073 46.3508C7.80028 46.7512 7.80028 47.4005 8.20073 47.801C8.60118 48.2014 9.25045 48.2014 9.6509 47.801L12.0563 45.3955C12.4568 44.9951 12.4568 44.3458 12.0563 43.9454Z" fill="white"/>
<path d="M47.8006 8.20146C47.4 7.80101 46.7509 7.80101 46.3503 8.20146L43.9449 10.6069C43.5444 11.0073 43.5444 11.6566 43.9449 12.0571C44.3455 12.4575 44.9946 12.4574 45.3952 12.0571L47.8006 9.65163C48.2011 9.25105 48.2011 8.60177 47.8006 8.20146Z" fill="white"/>
<path d="M28.001 0C27.4345 0 26.9756 0.459101 26.9756 1.02539V4.42722C26.9756 4.99351 27.4345 5.45261 28.001 5.45261C28.5674 5.45261 29.0264 4.99351 29.0264 4.42722V1.02539C29.0264 0.459101 28.5674 0 28.001 0Z" fill="white"/>
<path d="M47.8006 46.3508L45.3952 43.9454C44.9946 43.5449 44.3455 43.5449 43.9449 43.9454C43.5444 44.3458 43.5444 44.9952 43.9449 45.3955L46.3503 47.801C46.7509 48.2014 47.4 48.2014 47.8006 47.801C48.2011 47.4005 48.2011 46.7512 47.8006 46.3508Z" fill="white"/>
<path d="M12.0563 10.6069L9.6509 8.20146C9.25045 7.80101 8.60118 7.80101 8.20073 8.20146C7.80028 8.60191 7.80028 9.25118 8.20073 9.65163L10.6062 12.0571C11.0066 12.4575 11.6559 12.4575 12.0563 12.0571C12.4568 11.6565 12.4568 11.0072 12.0563 10.6069Z" fill="white"/>
<path d="M47.5467 28.9176C46.984 28.846 46.4717 29.2442 46.4006 29.8062C45.7016 35.3279 42.5849 40.2002 37.8498 43.1731C35.8085 44.4549 34.5899 46.6484 34.5899 49.0407V53.2608H21.4126V48.9473C21.4126 46.6307 20.2019 44.4422 18.2533 43.2359C12.7427 39.8248 9.45269 33.9244 9.45255 27.4523C9.45255 18.1073 16.4523 10.1932 25.7345 9.04339C26.2965 8.9738 26.6956 8.46166 26.626 7.89961C26.5564 7.33769 26.0446 6.93752 25.4823 7.00806C15.2263 8.27859 7.40123 17.0983 7.40137 27.4523C7.40137 31.0251 8.33064 34.5454 10.089 37.6325C11.7934 40.6252 14.2433 43.1657 17.1735 44.9796C18.523 45.8149 19.3612 47.3353 19.3612 48.9472V53.4101C18.3186 53.7724 17.5668 54.7625 17.5668 55.9269V57.3887C17.5668 58.0076 17.7806 58.5765 18.1357 59.0295C17.7805 59.4824 17.5668 60.0512 17.5668 60.6702V62.1319C17.5668 63.602 18.7629 64.798 20.2329 64.798H23.4568V67.1161C23.4568 68.4533 24.5446 69.5412 25.8817 69.5412H30.1196C31.4569 69.5412 32.5446 68.4533 32.5446 67.1161V64.798H35.7684C37.2385 64.798 38.4346 63.6019 38.4346 62.1319V60.6702C38.4346 60.0513 38.2207 59.4824 37.8655 59.0295C38.2207 58.5765 38.4346 58.0078 38.4346 57.3887V55.9269C38.4346 54.7623 37.6829 53.7724 36.6401 53.4101V49.0405C36.6401 47.3582 37.4997 45.8141 38.9397 44.91C44.1971 41.6091 47.658 36.1977 48.4344 30.0637C48.5062 29.5018 48.1085 28.9887 47.5467 28.9176ZM30.4941 67.116C30.4941 67.3187 30.3228 67.4902 30.12 67.4902H25.8822C25.6794 67.4902 25.5081 67.3189 25.5081 67.116V64.7979H30.4941V67.116ZM36.3842 62.1318C36.3842 62.4652 36.1024 62.747 35.769 62.747C33.9588 62.747 21.9415 62.747 20.2334 62.747C19.8999 62.747 19.6181 62.4652 19.6181 62.1318V60.6701C19.6181 60.3366 19.8999 60.0549 20.2334 60.0549H35.769C36.1024 60.0549 36.3842 60.3366 36.3842 60.6701V62.1318ZM36.3842 57.3886C36.3842 57.722 36.1024 58.0038 35.769 58.0038H20.2334C19.8999 58.0038 19.6181 57.722 19.6181 57.3886V55.9268C19.6181 55.5933 19.8999 55.3115 20.2334 55.3115H35.769C36.1024 55.3115 36.3842 55.5933 36.3842 55.9268V57.3886Z" fill="white"/>
</svg>

<svg width="57" height="70" fill="none" xmlns="http://www.w3.org/2000/svg"><path d="M41.492 24.72h-3.106c-.19-.601-.43-1.184-.722-1.743l2.196-2.196c.274-.274.425-.64.425-1.027 0-.389-.15-.754-.425-1.028l-2.584-2.584a1.455 1.455 0 00-2.055 0l-2.196 2.196a10.792 10.792 0 00-1.744-.722V14.51c0-.8-.652-1.453-1.453-1.453h-3.654c-.802 0-1.454.652-1.454 1.453v3.106c-.601.19-1.184.43-1.743.722l-2.196-2.196a1.455 1.455 0 00-2.055 0l-2.584 2.584c-.275.274-.426.64-.426 1.028s.151.753.426 1.027l2.196 2.196a10.791 10.791 0 00-.722 1.743H14.51c-.801 0-1.453.652-1.453 1.454v3.654c0 .801.652 1.453 1.453 1.453h3.106c.19.602.43 1.185.722 1.744l-2.196 2.196a1.455 1.455 0 000 2.055l2.584 2.584a1.455 1.455 0 002.055 0l2.196-2.196c.559.291 1.142.532 1.743.722v3.105c0 .802.652 1.453 1.454 1.453h3.654c.801 0 1.453-.651 1.453-1.453v-3.105a10.75 10.75 0 001.744-.722l2.196 2.196a1.455 1.455 0 002.055 0l2.584-2.584c.274-.275.425-.64.425-1.028s-.15-.753-.425-1.027l-2.196-2.196c.291-.56.532-1.142.722-1.744h3.105c.802 0 1.454-.652 1.454-1.453v-3.654c0-.802-.652-1.453-1.453-1.453zm-.598 4.51h-3.29c-.475 0-.89.328-.998.792a8.767 8.767 0 01-1.09 2.635c-.252.404-.191.929.145 1.266l2.326 2.325-1.739 1.74-2.325-2.327a1.025 1.025 0 00-1.267-.146c-.813.506-1.7.873-2.634 1.091a1.025 1.025 0 00-.791.999v3.29h-2.46v-3.29c0-.476-.327-.89-.791-.999a8.76 8.76 0 01-2.634-1.09 1.026 1.026 0 00-1.267.145l-2.325 2.326-1.739-1.739 2.326-2.325c.336-.337.397-.862.146-1.267a8.772 8.772 0 01-1.091-2.634 1.025 1.025 0 00-.998-.791h-3.29v-2.46h3.29c.476 0 .89-.327.998-.791a8.773 8.773 0 011.09-2.634c.252-.405.191-.93-.145-1.267l-2.326-2.325 1.739-1.74 2.325 2.327c.337.336.862.397 1.267.146a8.766 8.766 0 012.634-1.091c.464-.108.792-.522.792-.998v-3.29h2.459v3.29c0 .476.327.89.791.998.935.218 1.82.585 2.635 1.09.404.252.929.191 1.266-.145l2.325-2.326 1.74 1.739-2.327 2.325a1.025 1.025 0 00-.145 1.267c.505.813.872 1.7 1.09 2.634.109.464.522.792.999.792h3.29v2.459z" fill="#fff"/><path d="M28.001 22.508A5.5 5.5 0 0022.508 28 5.5 5.5 0 0028 33.494a5.5 5.5 0 005.494-5.493A5.5 5.5 0 0028 22.508zm0 8.936A3.447 3.447 0 0124.56 28 3.447 3.447 0 0128 24.558a3.446 3.446 0 013.443 3.443A3.446 3.446 0 0128 31.443zM4.427 26.976H1.025a1.025 1.025 0 000 2.05h3.402a1.025 1.025 0 000-2.05zm50.55 0h-3.402a1.025 1.025 0 100 2.05h3.402a1.025 1.025 0 100-2.05zM12.056 43.945c-.4-.4-1.05-.4-1.45 0l-2.405 2.406a1.025 1.025 0 001.45 1.45l2.405-2.406c.4-.4.4-1.05 0-1.45zM47.8 8.201c-.4-.4-1.05-.4-1.45 0l-2.405 2.406a1.025 1.025 0 101.45 1.45l2.406-2.405c.4-.4.4-1.05 0-1.45zM28.001 0c-.567 0-1.025.46-1.025 1.025v3.402a1.025 1.025 0 102.05 0V1.025C29.026.46 28.567 0 28.001 0zM47.8 46.35l-2.405-2.405a1.025 1.025 0 00-1.45 1.45l2.405 2.406a1.026 1.026 0 001.45-1.45zM12.056 10.607L9.651 8.2a1.025 1.025 0 00-1.45 1.45l2.405 2.406a1.025 1.025 0 001.45-1.45z" fill="#fff"/><path d="M47.547 28.918a1.025 1.025 0 00-1.146.888c-.7 5.522-3.816 10.394-8.551 13.367a6.899 6.899 0 00-3.26 5.868v4.22H21.413v-4.314c0-2.316-1.211-4.505-3.16-5.711-5.51-3.411-8.8-9.312-8.8-15.784 0-9.345 7-17.259 16.282-18.409a1.025 1.025 0 00-.253-2.035c-10.256 1.27-18.08 10.09-18.08 20.444a20.6 20.6 0 002.687 10.18 20.737 20.737 0 007.085 7.348c1.349.835 2.187 2.355 2.187 3.967v4.463a2.669 2.669 0 00-1.794 2.517v1.462c0 .619.214 1.188.569 1.64a2.65 2.65 0 00-.57 1.641v1.462a2.67 2.67 0 002.667 2.666h3.224v2.318a2.428 2.428 0 002.425 2.425h4.238a2.428 2.428 0 002.425-2.425v-2.318h3.223a2.67 2.67 0 002.667-2.666V60.67a2.65 2.65 0 00-.57-1.64 2.65 2.65 0 00.57-1.641v-1.462a2.668 2.668 0 00-1.795-2.517v-4.37c0-1.682.86-3.226 2.3-4.13 5.257-3.3 8.718-8.712 9.494-14.846a1.024 1.024 0 00-.887-1.146zM30.494 67.116a.38.38 0 01-.374.374h-4.238a.38.38 0 01-.374-.374v-2.318h4.986v2.318zm5.89-4.984a.624.624 0 01-.615.615H20.233a.624.624 0 01-.615-.615V60.67c0-.333.282-.615.615-.615H35.77c.333 0 .615.282.615.615v1.462zm0-4.743a.624.624 0 01-.615.615H20.233a.624.624 0 01-.615-.615v-1.462c0-.334.282-.615.615-.615H35.77c.333 0 .615.281.615.615v1.462z" fill="#fff"/></svg>
